public/logo-symbol.svg

<svg height="55.748" viewBox="0 0 68.774 55.748" width="68.774" xmlns="http://www.w3.org/2000/svg"><g fill="#737aef"><path d="m53.563 0h-16.022l15.211 22.814-15.211 22.814-21.519-32.279h-16.022l28.266 42.4h16.022l-6.746-10.12h16.021l13.9-20.845 1.311-1.97z"/><path d="m68.011.006h-21.518v13.345h12.62z" transform="translate(-30.47 -.004)"/></g></svg>

<svg xmlns="http://www.w3.org/2000/svg" width="68.774" height="55.748" viewBox="0 0 68.774 55.748">
  <g id="sygnet_stopka" data-name="sygnet stopka" transform="translate(0)">
    <path id="sygnet_stopka-2" data-name="sygnet stopka" d="M53.563,0H37.541L52.752,22.814,37.541,45.628,16.022,13.349H0l28.266,42.4H44.288l-6.746-10.12H53.563l13.9-20.845,1.311-1.97Z" transform="translate(0 0)" fill="#737aef"/>
    <path id="Path_10" data-name="Path 10" d="M68.011.006H46.493V13.351H59.113Z" transform="translate(-30.47 -0.004)" fill="#737aef"/>
  </g>
</svg>
